X:532
T:Rosey Let Me In
M:C
L:1/8
B:O'Neill's 532
N:"Moderate" "collected by J. O'Neill"
Z:Transcribed by Dave Wooldridge
K:G
(B>A) \
| G2 (d>e) d2 g2 | f3 e d2 e2 | d2 cB ABcA | GFED D2 B>A |
G2 (d>e) d2 g2 | (~fefg) a2 d>e | f2 a2 gfef | g6 ||
(g>a) \
| b2 (a>g) g2 (fd) | (g>fga) .b(.d.c.B) | (cedc) (BdcB) | B2 A2 z2 (g>a) |
(babg) (fefd) | gfga b(.d.c.B) | c3 B c2 df | g6 ||


